X:1
T:La Petite Réunion
T:La Petite Réunion
T:Kleine Gesellschaft * Festive Gathering
T:Johann Friedrich Franz Burgmüller (1806-1874) Opus 100.
T:25 Etudes faciles 
T:by Mutopia-2013/01/12-219
C:Johann Friedrich Franz Burgmüller (1806-1874)
Z:25 Etudes faciles
Z:by Mutopia-2013/01/12-219
%%score { 1 | 2 }
L:1/8
Q:1/4=125
M:4/4
K:C
V:1 treble nm="Piano" snm="Pno."
V:2 bass 
V:1
"^Allegro non troppo"!p! z8 |!>(! .[df].[ce].[Bd].[Ac] .[GB].[FA].[EG].[DF]!>)! | [CE]2 z2 z4 | %3
!>(! .[df].[ce].[Bd].[Ac] .[GB].[FA].[EG].[DF]!>)! | [CE]2 z2!f! .[Ec]2 z2 | %5
 .[CD]2 z2 .[B,G]2 !fermata!z2 | ([c'e']2!>(! [bd'][ac'])!>)!!p! ([ac']2 [gb][fa] | %7
 [eg]2 [ce][df] [eg]2) ([df][ce]) | ([ce]2 [Bd][ce] [df]2) ([df][ce] | %9
!<(! .[Bd]).[ce].[df].[eg] .[fa].[gb].[ac'].[bd']!<)! | %10
 ([c'e']2!>(! [bd'][ac'])!>)!!p! ([ac']2 [gb][fa] | [eg]2 [ce][df] [eg]2) ([df][ce]) | %12
!f! [Af]2 [Ge][Fd] [Fd]2 [Ec][DB] | [Ec]2 (ED C2) z2 ::!p! z8 | ([GB]2 [Ac][Bd]) ([Bd]2 [ce][df]) | %16
 [df]4 z4 |"_cresc." ([GB]2 [Ac][Bd]) ([Bd]2 [ce][df]) | [df]2 ([Bd][ce] [df]4- | %19
 [df]2) ([Bd][ce] [df]4- | [df]2) ([Bd][ce] [df]2) ([Bd][ce] | %21
 .[df]2)!<(! .[df].[eg] .[fa].[gb].[ac'].[bd']!<)! | %22
 ([c'e']2!>(! [bd'][ac'])!>)!!p! ([ac']2 [gb][fa] | [eg]2 [ce][df] [eg]2) ([df][ce]) | %24
 ([ce]2 [Bd][ce] [df]2) ([df][ce] |!<(! .[Bd]).[ce].[df].[eg] .[fa].[gb].[ac'].[bd']!<)! | %26
 ([c'e']2!>(! [bd'][ac'])!>)!!p! ([ac']2 [gb][fa] | [eg]2 [ce][df] [eg]2) ([df][ce]) | %28
!f! [Af]2 [Ge][Fd] [Fd]2 [Ec][DB] | [Ec]2 (ED C2) z2 |] %30
V:2
 (G,2 A,B, C2 E,F, | G,8) | (G,2 A,B, CE,B,A, | G,8) | C,2 z2 .A,2 z2 | .F,2 z2 .G,2 !fermata!z2 | %6
 C,4 (F,2 A,2 | C4) C,4 | A,4 D,4 | G,8 | C,4 F,2 A,2 | C4 C,4 | F,4 G,4 | C,2 (G,F, [C,E,]2) z2 :: %14
 ([G,B,]2 [A,C][B,D]) ([B,D]2 [CE][DF]) | [DF]4 z4 | ([G,B,]2 [A,C][B,D]) ([B,D]2 [CE][DF]) | %17
 ([DF]2 [CE][B,D]) ([B,D]2 [A,C][G,B,]) | [G,B,]2 z2 z2[K:treble] (_A2 | G2) z2 z2[K:bass] (_A,2 | %20
 G,2) z2 z4 | z8 | C,4 (F,2 A,2 | C4) C,4 | A,4 D,4 | G,8 | C,4 (F,2 A,2 | C4) C,4 | F,4 G,4 | %29
 C,2 (G,F, [C,E,]2) z2 |] %30

